public/images/marquee/aircall.svg

<svg xmlns="http://www.w3.org/2000/svg" fill="none" viewBox="0 0 127 36">
  <path fill="#CFD1D7" d="M27.8464.774283C25.8219.305717 22.4941 0 18.7319 0c-3.7621 0-7.0899.305717-9.11444.774283C5.58099 1.62373 2.40231 4.8115 1.55528 8.85949 1.08805 10.8898.783203 14.2271.783203 18c0 3.7729.304847 7.1102.772077 9.1405.84703 4.048 4.02571 7.2358 8.06218 8.0852C11.642 35.6943 14.9698 36 18.7319 36c3.7622 0 7.09-.3057 9.1145-.7743 4.0364-.8494 7.2151-4.0372 8.0622-8.0852.4672-2.0303.772-5.3676.772-9.1405 0-3.7729-.3048-7.1102-.772-9.14051-.8471-4.04799-4.0258-7.23576-8.0622-8.085207Z"/>
  <path fill="#FBFBFD" d="M23.0448 27.6344c-.3406-.8131-1.0636-1.4254-1.9432-1.6105-.5264-.1218-1.3917-.2013-2.3698-.2013-.9782 0-1.8434.0795-2.3698.2013-.8733.1838-1.5923.7887-1.9359 1.5931-.1191.2789-.4047.4492-.7067.4213-.0747-.0069-.1393-.013-.1936-.0184-1.4076-.1406-2.514-.3367-3.1567-.5655-.0011-.0005-.0024-.0011-.0039-.0017-.43131-.1625-.73825-.58-.73825-1.0694 0-.0122.00019-.0243.00057-.0364.00099-.0197.00214-.0398.00346-.0603.00038-.0046.00079-.0092.00123-.0137.00122-.0128.00199-.0252.0023-.0372.10957-1.4691.99929-4.9086 2.32809-8.8344 1.5191-4.488 3.1078-8.12145 3.8242-8.83014.1143-.1194.2463-.2194.3921-.29652.0569-.03261.1291-.06379.2147-.0932.0022-.00077.0045-.00154.0067-.0023.4707-.15963 1.3382-.26654 2.3306-.26654.9942 0 1.8617.10691 2.3315.26625.0031.00105.0053.00182.0076.00259.0856.02941.1577.06059.2147.0932.1458.07712.2777.17712.391.29524.0004.00038.0008.00081.0011.00128.7164.70869 2.3051 4.34214 3.8242 8.83014 1.3288 3.9258 2.2185 7.3653 2.3281 8.8344.0003.012.0011.0244.0023.0372.0004.0045.0008.0091.0012.0137.0013.0205.0025.0406.0035.0603.0003.0121.0005.0242.0005.0364 0 .4894-.3069.9069-.7382 1.0694-.0016.0006-.0028.0012-.0039.0017-.6422.2286-1.7472.4246-3.153.5651-.061.0061-.1347.0131-.2212.021-.2897.0265-.5631-.1379-.6755-.4061Z"/>
  <path fill="#CFD1D7" fill-rule="evenodd" d="M58.12 11.9933h3.4304v15.012H58.12v-2.6378c-1.072 1.871-2.9097 2.9445-5.2987 2.9445-3.9817 0-7.167-3.4966-7.167-7.8213 0-4.3248 3.1853-7.7907 7.167-7.7907 2.389 0 4.2267 1.0735 5.2987 2.9445v-2.6512Zm51.358 0h3.43v15.012h-3.43v-2.6378c-1.072 1.871-2.91 2.9445-5.299 2.9445-3.982 0-7.167-3.4966-7.167-7.8213 0-4.3248 3.185-7.7907 7.167-7.7907 2.389 0 4.227 1.0735 5.299 2.9445v-2.6512ZM53.633 24.0496c2.6034 0 4.5636-1.963 4.5636-4.5701 0-2.5765-1.9602-4.5395-4.5636-4.5395-2.5421 0-4.5636 2.0244-4.5636 4.5395 0 2.5457 2.0215 4.5701 4.5636 4.5701Zm51.178 0c2.603 0 4.564-1.963 4.564-4.5701 0-2.5765-1.961-4.5395-4.564-4.5395-2.542 0-4.564 2.0244-4.564 4.5395 0 2.5457 2.022 4.5701 4.564 4.5701ZM66.6864 4.5c1.1945 0 2.2052 1.01218 2.2052 2.17771 0 1.22688-1.0107 2.20839-2.2052 2.20839-1.1945 0-2.1746-.98151-2.1746-2.20839 0-1.16553.9801-2.17771 2.1746-2.17771Zm-1.6845 7.452h3.3997v15.012h-3.3997V11.952Zm14.0789-.2933c.6549 0 1.2856.0974 1.7402.2705.2676.1018.5037.2144.687.3095l-1.3835 2.9004c-.4359-.1324-.9083-.1985-1.3806-.1985-1.6539 0-3.4916 1.3802-3.4916 4.018v8.0054h-3.3997V11.952h3.3997v2.1604c.6738-1.4416 2.3584-2.4537 3.8285-2.4537Zm17.0746 11.502c-1.1333 2.4844-3.7673 4.11-6.8914 4.11-4.4411 0-7.8408-3.3432-7.8408-7.7907 0-4.4474 3.3691-7.8213 7.8102-7.8213 2.9097 0 5.3599 1.4416 6.4626 3.6499l-2.8791 1.6257c-.6126-1.1963-1.9602-1.9937-3.5835-1.9937-2.5728 0-4.4411 1.963-4.4411 4.5394 0 2.5458 1.899 4.5088 4.4717 4.5088 1.7458 0 3.1854-.8281 3.8592-2.2084l3.0322 1.3803ZM119.759 4.5v22.464h-3.4V4.5h3.4Zm6.85 0v22.464h-3.399V4.5h3.399Z" clip-rule="evenodd"/>
</svg>

<svg width="127" height="36" viewBox="0 0 127 36" fill="none" xmlns="http://www.w3.org/2000/svg">
<path d="M27.8464 0.774283C25.8219 0.305717 22.4941 0 18.7319 0C14.9698 0 11.642 0.305717 9.61746 0.774283C5.58099 1.62373 2.40231 4.8115 1.55528 8.85949C1.08805 10.8898 0.783203 14.2271 0.783203 18C0.783203 21.7729 1.08805 25.1102 1.55528 27.1405C2.40231 31.1885 5.58099 34.3763 9.61746 35.2257C11.642 35.6943 14.9698 36 18.7319 36C22.4941 36 25.8219 35.6943 27.8464 35.2257C31.8828 34.3763 35.0615 31.1885 35.9086 27.1405C36.3758 25.1102 36.6806 21.7729 36.6806 18C36.6806 14.2271 36.3758 10.8898 35.9086 8.85949C35.0615 4.8115 31.8828 1.62373 27.8464 0.774283Z" fill="#CFD1D7"/>
<path d="M23.0448 27.6344C22.7042 26.8213 21.9812 26.209 21.1016 26.0239C20.5752 25.9021 19.7099 25.8226 18.7318 25.8226C17.7536 25.8226 16.8884 25.9021 16.362 26.0239C15.4887 26.2077 14.7697 26.8126 14.4261 27.617C14.307 27.8959 14.0214 28.0662 13.7194 28.0383C13.6447 28.0314 13.5801 28.0253 13.5258 28.0199C12.1182 27.8793 11.0118 27.6832 10.3691 27.4544C10.368 27.4539 10.3667 27.4533 10.3652 27.4527C9.93389 27.2902 9.62695 26.8727 9.62695 26.3833C9.62695 26.3711 9.62714 26.359 9.62752 26.3469C9.62851 26.3272 9.62966 26.3071 9.63098 26.2866C9.63136 26.282 9.63177 26.2774 9.63221 26.2729C9.63343 26.2601 9.6342 26.2477 9.63451 26.2357C9.74408 24.7666 10.6338 21.3271 11.9626 17.4013C13.4817 12.9133 15.0704 9.27985 15.7868 8.57116C15.9011 8.45176 16.0331 8.35176 16.1789 8.27464C16.2358 8.24203 16.308 8.21085 16.3936 8.18144C16.3958 8.18067 16.3981 8.1799 16.4003 8.17914C16.871 8.01951 17.7385 7.9126 18.7309 7.9126C19.7251 7.9126 20.5926 8.01951 21.0624 8.17885C21.0655 8.1799 21.0677 8.18067 21.07 8.18144C21.1556 8.21085 21.2277 8.24203 21.2847 8.27464C21.4305 8.35176 21.5624 8.45176 21.6757 8.56988C21.6761 8.57026 21.6765 8.57069 21.6768 8.57116C22.3932 9.27985 23.9819 12.9133 25.501 17.4013C26.8298 21.3271 27.7195 24.7666 27.8291 26.2357C27.8294 26.2477 27.8302 26.2601 27.8314 26.2729C27.8318 26.2774 27.8322 26.282 27.8326 26.2866C27.8339 26.3071 27.8351 26.3272 27.8361 26.3469C27.8364 26.359 27.8366 26.3711 27.8366 26.3833C27.8366 26.8727 27.5297 27.2902 27.0984 27.4527C27.0968 27.4533 27.0956 27.4539 27.0945 27.4544C26.4523 27.683 25.3473 27.879 23.9415 28.0195C23.8805 28.0256 23.8068 28.0326 23.7203 28.0405C23.4306 28.067 23.1572 27.9026 23.0448 27.6344Z" fill="#FBFBFD"/>
<path fill-rule="evenodd" clip-rule="evenodd" d="M58.12 11.9933H61.5504V27.0053H58.12V24.3675C57.048 26.2385 55.2103 27.312 52.8213 27.312C48.8396 27.312 45.6543 23.8154 45.6543 19.4907C45.6543 15.1659 48.8396 11.7 52.8213 11.7C55.2103 11.7 57.048 12.7735 58.12 14.6445V11.9933ZM109.478 11.9933H112.908V27.0053H109.478V24.3675C108.406 26.2385 106.568 27.312 104.179 27.312C100.197 27.312 97.012 23.8154 97.012 19.4907C97.012 15.1659 100.197 11.7 104.179 11.7C106.568 11.7 108.406 12.7735 109.478 14.6445V11.9933ZM53.633 24.0496C56.2364 24.0496 58.1966 22.0866 58.1966 19.4795C58.1966 16.903 56.2364 14.94 53.633 14.94C51.0909 14.94 49.0694 16.9644 49.0694 19.4795C49.0694 22.0252 51.0909 24.0496 53.633 24.0496ZM104.811 24.0496C107.414 24.0496 109.375 22.0866 109.375 19.4795C109.375 16.903 107.414 14.94 104.811 14.94C102.269 14.94 100.247 16.9644 100.247 19.4795C100.247 22.0252 102.269 24.0496 104.811 24.0496ZM66.6864 4.5C67.8809 4.5 68.8916 5.51218 68.8916 6.67771C68.8916 7.90459 67.8809 8.8861 66.6864 8.8861C65.4919 8.8861 64.5118 7.90459 64.5118 6.67771C64.5118 5.51218 65.4919 4.5 66.6864 4.5ZM65.0019 11.952H68.4016V26.964H65.0019V11.952ZM79.0808 11.6587C79.7357 11.6587 80.3664 11.7561 80.821 11.9292C81.0886 12.031 81.3247 12.1436 81.508 12.2387L80.1245 15.1391C79.6886 15.0067 79.2162 14.9406 78.7439 14.9406C77.09 14.9406 75.2523 16.3208 75.2523 18.9586V26.964H71.8526V11.952H75.2523V14.1124C75.9261 12.6708 77.6107 11.6587 79.0808 11.6587ZM96.1554 23.1607C95.0221 25.6451 92.3881 27.2707 89.264 27.2707C84.8229 27.2707 81.4232 23.9275 81.4232 19.48C81.4232 15.0326 84.7923 11.6587 89.2334 11.6587C92.1431 11.6587 94.5933 13.1003 95.696 15.3086L92.8169 16.9343C92.2043 15.738 90.8567 14.9406 89.2334 14.9406C86.6606 14.9406 84.7923 16.9036 84.7923 19.48C84.7923 22.0258 86.6913 23.9888 89.264 23.9888C91.0098 23.9888 92.4494 23.1607 93.1232 21.7804L96.1554 23.1607ZM119.759 4.5V26.964H116.359V4.5H119.759ZM126.609 4.5V26.964H123.21V4.5H126.609Z" fill="#CFD1D7"/>
</svg>
